www/assets/icons/voice_over_off.svg

<svg width="24" height="24" viewBox="0 0 24 24" xmlns="http://www.w3.org/2000/svg" fill='currentColor'><path d="M12.9906 9.68C12.9906 9.62 13.0006 9.56 13.0006 9.5C13.0006 7.29 11.2106 5.5 9.00061 5.5C8.94061 5.5 8.88061 5.51 8.82061 5.51L12.9906 9.68ZM4.27061 3.5L3.00061 4.77L5.62061 7.39C5.23061 8 5.00061 8.72 5.00061 9.5C5.00061 11.71 6.79061 13.5 9.00061 13.5C9.78061 13.5 10.5006 13.27 11.1106 12.88L19.7306 21.5L21.0006 20.23L4.27061 3.5ZM9.00061 15.5C6.33061 15.5 1.00061 16.84 1.00061 19.5V21.5H17.0006V19.5C17.0006 16.84 11.6706 15.5 9.00061 15.5ZM16.7606 5.86L15.0806 7.55C15.9206 8.73 15.9206 10.26 15.0806 11.44L16.7606 13.13C18.7806 11.11 18.7806 8.06 16.7606 5.86ZM20.0706 2.5L18.4406 4.13C21.2106 7.15 21.2106 11.69 18.4406 14.87L20.0706 16.5C23.9706 12.61 23.9806 6.55 20.0706 2.5Z"/></svg>

<svg xmlns="http://www.w3.org/2000/svg" width="24" height="24" viewBox="0 0 24 24" fill='currentColor'><path d="M12.99 9.68c0-.06.01-.12.01-.18 0-2.21-1.79-4-4-4-.06 0-.12.01-.18.01zM4.27 3.5 3 4.77l2.62 2.62C5.23 8 5 8.72 5 9.5c0 2.21 1.79 4 4 4 .78 0 1.5-.23 2.11-.62l8.62 8.62L21 20.23zM9 15.5c-2.67 0-8 1.34-8 4v2h16v-2c0-2.66-5.33-4-8-4m7.76-9.64-1.68 1.69c.84 1.18.84 2.71 0 3.89l1.68 1.69c2.02-2.02 2.02-5.07 0-7.27m3.31-3.36-1.63 1.63c2.77 3.02 2.77 7.56 0 10.74l1.63 1.63c3.9-3.89 3.91-9.95 0-14"/></svg>
